X: 3
T: Waterman's
R: jig
M: 6/8
L: 1/8
K: Emin
E2B BAG|AGA B2E|GAA AGA|BcG AGF|E2B BAG|AGA B2E|GAA ABG|ABG E3:|g2e efg|f2 B BdB|c2A ABG|ABc daf|g2e efg|f2 B BdB|c2A ABG|AGF EGB|g2e efg|agf efd|bag fga|gfe fdB|g2e efg|f2 B BdB|c2A ABG|ABG E3 |]


Tune 3367	Setting 21543

